X: 1
T: Polska til Mats
R: gammalpolska fr F\"ollinge
C: Elizabeth Foster
N: Handwritten MS
M: 3/4
L: 1/8
%%slurgraces 1
K: D
({Bc}B \
| A)>G FE D>F | A>d (3c(Ac) d>A | B>g e>d (3c(ec) | (3A(Bc) d>(B A)>(~B | A)>G FE D>F |
| A>d (3c(Ac) d>A | B>g e>d (3c(ec) |2,4 (3A(Bc) {c}d3 :: (f | (3a)(ba) (3f(af) (3d(ef) | g>f gb (B2 |
| e>)d (3c(ec) (3A(Bc) | d>e fg a2- | (3a(ba) (3f(af) (3d(ef) | g>f gb (B2 | e>)d (3c(ec) (3A(Bc) | {c}d2 d3 :|
